!!!COM: Palestrina, Giovanni Perluigi da
!!!OPR: Missa Salvum me fac
!!!OMD: Credo
!!!OTL: First Section
**kern	**kern	**kern	**kern	**kern
*Ibass	*Itenor	*Icalto	*Icant	*Icant
!Bassus	!Tenor	!Altus	!Cantus 2	!Cantus 1
*clefF4	*clefGv2	*clefG2	*clefG2	*clefG2
*k[b-]	*k[b-]	*k[b-]	*k[b-]	*k[b-]
*G:dor	*G:dor	*G:dor	*G:dor	*G:dor
*M4/2	*M4/2	*M4/2	*M4/2	*M4/2
=1	=1	=1	=1	=1
1r	0r	1r	0r	0g
[1G	.	[1d	.	.
=2	=2	=2	=2	=2
1G]	1r	1d]	0r	1b-
1D	[1d	[1f	.	1a
=3	=3	=3	=3	=3
1B-	1d]	2f]	0r	1.dd
.	.	2g	.	.
[1A	1f	1a	.	.
.	.	.	.	2cc
=4	=4	=4	=4	=4
1A]	1e	2r	0r	2.cc
.	.	2a	.	.
.	.	.	.	8dd
.	.	.	.	8ee
1D	2.d	2a	.	2.ff
.	.	2f	.	.
.	4c	.	.	4ee-
=5	=5	=5	=5	=5
1.G	4B-	2.g	0r	4dd
.	4A	.	.	4cc
.	1B-	.	.	2.dd
.	.	8f	.	.
.	.	8e	.	.
.	.	2d	.	.
.	.	.	.	4b-
2C	2c	[2g	.	2ee-
=6	=6	=6	=6	=6
1D	1A	2g]	1r	1dd
.	.	2f#	.	.
[1G	1G	2g	[1g	[1b-
.	.	2d	.	.
=7	=7	=7	=7	=7
1G]	2r	2d	1g]	1b-]
.	2G	2d	.	.
1r	2G	1g	1b-	2r
.	2G	.	.	2dd
=8	=8	=8	=8	=8
0r	2.d	2.f	1a	2dd
.	.	.	.	2dd
.	4c	4e	.	.
.	1B-	4d	[1dd	[1ff
.	.	4e	.	.
.	.	4f	.	.
.	.	4g	.	.
=9	=9	=9	=9	=9
2r	1A	1a	2dd]	2ff]
2A	.	.	2cc	2ee
2A	1r	[1a	1cc	1ee
2A	.	.	.	.
=10	=10	=10	=10	=10
1d	2r	2a]	2.ff	2.dd
.	2d	2f	.	.
.	.	.	4ee-	4cc
2.G	2d	1g	4dd	4b-
.	.	.	4cc	4a
.	2d	.	[2dd	[2b-
4A	.	.	.	.
=11	=11	=11	=11	=11
2B-	1g	0r	4dd]	2b-]
.	.	.	4b-	.
2c	.	.	2.ee-	4a
.	.	.	.	4g
1d	2g	.	.	2b-
.	.	.	4dd	.
.	2f	.	[2dd	4a
.	.	.	.	4g
=12	=12	=12	=12	=12
1A	1e	1r	2dd]	2.a
.	.	.	2cc#	.
.	.	.	.	4g
2r	2d	2r	[1dd	2f#
[2G	[2g	[2b-	.	2g
=13	=13	=13	=13	=13
2G]	2g]	2b-]	1dd]	1d
2D	2f	2a	.	.
2G	2e	2g	2r	1r
2B-	2d	2f	[2dd	.
=14	=14	=14	=14	=14
1A	2f	2.a	2dd]	0r
.	2e	.	2cc	.
.	.	4g	.	.
1D	2.d	2.f	2b-	.
.	.	.	2a	.
.	8c	8e	.	.
.	8B-	8d	.	.
=15	=15	=15	=15	=15
0r	2A	2e	2.cc	1r
.	2.f	2.a	.	.
.	.	.	4b-	.
.	.	.	1a	2r
.	4e	4g	.	.
.	4d	4f	.	[2dd
.	4c	4e	.	.
=16	=16	=16	=16	=16
0r	2B-	2d	2b-	2dd]
.	2e-	1g	2cc	2cc
.	1d	.	1dd	2b-
.	.	[2f	.	2a
=17	=17	=17	=17	=17
0r	1.c	2f]	1g	2.cc
.	.	4e-	.	.
.	.	4d	.	4b-
.	.	2e-	2a	2a
.	2B-	2d	2b-	[2g
=18	=18	=18	=18	=18
2r	2A	2c	1cc	2g]
1c	2A	2c	.	2f#
.	2G	1d	1r	1g
2B-	2g	.	.	.
=19	=19	=19	=19	=19
2A	2f	2r	0r	0r
2G	2e-	1g	.	.
2.B-	2.d	.	.	.
.	.	2f	.	.
4A	4c	.	.	.
=20	=20	=20	=20	=20
2G	2B-	2e-	1r	0r
2F	2A	2d	.	.
2E-	2G	2d	2r	.
2E-	2G	2c	[2g	.
=21	=21	=21	=21	=21
1D	1A	1d	2g]	2r
.	.	.	2f	2.dd
1r	1G	2r	2.b-	.
.	.	.	.	4cc
.	.	[2g	.	4b-
.	.	.	4cc	4a
=22	=22	=22	=22	=22
0r	0r	2g]	1dd	2b-
.	.	2f	.	2a
.	.	2e-	2cc	2g
.	.	2d	[2dd	2b-
=23	=23	=23	=23	=23
0r	2r	2f	2dd]	2a
.	1g	2e-	2cc	2g
.	.	1d	1dd	2a
.	2f#	.	.	[2dd
=24	=24	=24	=24	=24
1.G	1g	1.b-	2r	4dd]
.	.	.	.	4cc
.	.	.	1dd	4b-
.	.	.	.	4a
.	1d	.	.	2g
2F#	.	2a	2dd	2a
=25	=25	=25	=25	=25
0G	2.B-	2.g	0dd	2b-
.	.	.	.	2g
.	4c	4a	.	.
.	[1d	1b-	.	1gg
=26	=26	=26	=26	=26
0D	1d]	2a	[0dd	0ff#
.	.	1a	.	.
.	2r	.	.	.
.	[2a	2a	.	.
=27	=27	=27	=27	=27
2r	2a]	1d	0dd]	0r
1d	2a	.	.	.
.	2d	1a	.	.
2d	2f	.	.	.
=28	=28	=28	=28	=28
2G	2e-	2g	0r	0r
1B-	1d	1f	.	.
2A	2c	2f	.	.
=29	=29	=29	=29	=29
2G	2B-	2g	1r	1.dd
2F#	2A	2a	.	.
[1G	2.B-	2.d	2r	.
.	.	.	[2dd	2dd
.	4c	4c	.	.
=30	=30	=30	=30	=30
1G]	1d	4B-	2dd]	2g
.	.	4A	.	.
.	.	2G	2dd	2.b-
1G	2r	1d	2g	.
.	.	.	.	4a
.	[2d	.	[2b-	[2g
=31	=31	=31	=31	=31
1D	2d]	2r	2b-]	2g]
.	2d	1d	2a	2f
1r	2G	.	2g	2b-
.	[2d	2d	2f	2a
=32	=32	=32	=32	=32
0r	2d]	1f	2.a	4dd
.	.	.	.	4ee
.	2d	.	.	4ff
.	.	.	4b-	4dd
.	2c	2g	2cc	2ee-
.	2B-	[2b-	2f	[2dd
=33	=33	=33	=33	=33
1r	2e-	2b-]	1g	2dd]
.	2e-	4a	.	2cc
.	.	4g	.	.
2r	2d	2f	1a	[1dd
[2D	[2A	[2f	.	.
=34	=34	=34	=34	=34
2D]	2A]	2f]	0r	1dd]
2D	2B-	2d	.	.
2C	2c	2e	.	1r
2BB-	2d	2f	.	.
=35	=35	=35	=35	=35
1E-	2.B-	1g	2r	1r
.	.	.	1g	.
.	8A	.	.	.
.	8G	.	.	.
1D	1d	1a	.	2r
.	.	.	2f	[2dd
=36	=36	=36	=36	=36
2r	1A	2r	2.a	2dd]
2A	.	2e	.	2cc
.	.	.	4b	.
2A	1r	2e	2cc	2a
2A	.	2e	2a	2cc
=37	=37	=37	=37	=37
2G	0r	2g	2b-	2dd
2F	.	2c	1a	1ff
2B-	.	2.d	.	.
2B-	.	.	2g	4ee
.	.	4e	.	4dd
=38	=38	=38	=38	=38
1A	2r	2f	1a	1cc
.	2A	4e	.	.
.	.	4d	.	.
1r	2A	2.e	2.cc	1a
.	2A	.	.	.
.	.	4f	4dd	.
=39	=39	=39	=39	=39
0r	2G	2g	4ee	2b-
.	.	.	4dd	.
.	2F	2c	2.ff	4a
.	.	.	.	4g
.	2B-	1d	.	2f
.	.	.	4ee	.
.	2B-	.	[2dd	2g
=40	=40	=40	=40	=40
0r	1A	1e	2dd]	0a
.	.	.	2cc#	.
.	1d	1f#	[1dd	.
=41	=41	=41	=41	=41
1G	1r	2r	0dd]	1b-
.	.	2d	.	.
2F	1d	2f	.	2a
2D	.	2f	.	2f
=42	=42	=42	=42	=42
1F	2c	2.f	0r	1a
.	2A	.	.	.
.	.	4e-	.	.
1G	1B	1d	.	1g
=43	=43	=43	=43	=43
1C	1c	0g	2r	2r
.	.	.	2ee-	2cc
1r	2r	.	2dd	2b-
.	2e-	.	2b-	2g
=44	=44	=44	=44	=44
1G	2d	2r	1.dd	4b-
.	.	.	.	4cc
.	2B-	2b-	.	4dd
.	.	.	.	4ee
2F	2.d	2a	.	[1ff
2D	.	2f	2dd	.
.	8c	.	.	.
.	8B-	.	.	.
=45	=45	=45	=45	=45
1F	4A	1a	1cc	1ff]
.	4B-	.	.	.
.	1c	.	.	.
1G	.	1g	1r	1dd
.	2B	.	.	.
=46	=46	=46	=46	=46
1C	1c	1g	2r	1ee-
.	.	.	1cc	.
1r	1g	1r	.	2r
.	.	.	2b-	[2dd
=47	=47	=47	=47	=47
0r	2f	0r	2a	4dd]
.	.	.	.	4cc
.	2e-	.	2g	2cc
.	2d	.	2dd	2b-
.	2f	.	[2cc	2a
=48	=48	=48	=48	=48
0r	2e-	2r	2cc]	2g
.	2d	2f	2b-	2f
.	2c	2e-	2a	2a
.	2B-	2d	[2g	2b-
=49	=49	=49	=49	=49
2r	1A	1c	2g]	1cc
1c	.	.	2f#	.
.	1G	2d	1g	1r
2B-	.	[2g	.	.
=50	=50	=50	=50	=50
1A	0r	2g]	0r	1r
.	.	2f	.	.
2G	.	2e	.	2r
[2B-	.	4d	.	[2dd
.	.	4e	.	.
=51	=51	=51	=51	=51
2B-]	0r	4f	0r	2dd]
.	.	4d	.	.
2A	.	2.e	.	2cc
2G	.	.	.	2b-
.	.	4d	.	.
2F	.	[2d	.	2a
=52	=52	=52	=52	=52
1E	2r	2d]	1r	2.g
.	1g	2c#	.	.
.	.	.	.	4a
1D	.	1d	2r	2b-
.	2f	.	2dd	2a
=53	=53	=53	=53	=53
0r	2e-	0r	2cc	2r
.	2d	.	1b-	1dd
.	2.f	.	.	.
.	.	.	2a	2cc
.	4e-	.	.	.
=54	=54	=54	=54	=54
0r	1d	1r	2ff	2b-
.	.	.	2ff	2a
.	1c	2r	1ee-	2.cc
.	.	[2g	.	.
.	.	.	.	4b-
=55	=55	=55	=55	=55
1r	1d	2g]	2dd	1a
.	.	2f	2.dd	.
2r	1G	1b-	.	2g
.	.	.	4cc	.
[2G	.	.	4b-	[2d
.	.	.	4a	.
=56	=56	=56	=56	=56
2G]	2r	2b-	2g	2d]
2F	1c	2a	2a	2f
2E-	.	2r	2cc	4g
.	.	.	.	4e-
2D	2B-	[2f	2dd	4f
.	.	.	.	4g
=57	=57	=57	=57	=57
2F	2A	2f]	2cc	2a
1G	2G	2.d	2.b-	2b-
.	2B-	.	.	1g
.	.	8c	4a	.
.	.	8d	.	.
2C	2c	2e-	[2g	.
=58	=58	=58	=58	=58
0D	0A	0d	2g]	1dd
.	.	.	4f	.
.	.	.	4e	.
.	.	.	2f#	1dd
.	.	.	2f#	.
=59	=59	=59	=59	=59
0G	1G	2r	0g	0b
.	.	1d	.	.
.	2r	.	.	.
.	[2G	2d	.	.
=60	=60	=60	=60	=60
0r	2G]	2e	0r	0r
.	2A	2f	.	.
.	2B-	2.g	.	.
.	2c	.	.	.
.	.	4a	.	.
=61	=61	=61	=61	=61
2r	2.d	4b-	0r	0r
.	.	4a	.	.
1D	.	1a	.	.
.	4e	.	.	.
.	2f	.	.	.
2E	[2e	2g	.	.
=62	=62	=62	=62	=62
2F	4e]	2a	1r	0r
.	4d	.	.	.
2G	1d	4g	.	.
.	.	4f	.	.
2A	.	4e	2r	.
.	.	4d	.	.
2A	2c#	2e	[2a	.
=63	=63	=63	=63	=63
1D	1d	2d	2a]	2r
.	.	2f	2a	2dd
1r	1r	2g	2b-	2dd
.	.	2e	2cc	2ee
=64	=64	=64	=64	=64
2r	0r	2.d	2dd	2ff
2D	.	.	1ff	1dd
.	.	4e	.	.
2D	.	2f	.	.
2E	.	2g	[2ee	[2cc
=65	=65	=65	=65	=65
2F	0r	2a	4ee]	4cc]
.	.	.	4dd	4a
2G	.	4g	1dd	2b-
.	.	4f	.	.
1A	.	4e	.	1a
.	.	4d	.	.
.	.	2e	2cc#	.
=66	=66	=66	=66	=66
2.B-	2r	0d	0dd	2f
.	2G	.	.	2b-
4A	.	.	.	.
2G	2G	.	.	2b-
2F	2A	.	.	2a
=67	=67	=67	=67	=67
1E-	2B-	1G	2r	1.g
.	2c	.	2g	.
1D	1d	2r	2b-	.
.	.	[2d	2a	2f
=68	=68	=68	=68	=68
0r	2.f	4d]	2dd	1a
.	.	4e	.	.
.	.	1f	2cc	.
.	4e	.	.	.
.	2d	.	2b-	[1dd
.	2c	2e	[2a	.
=69	=69	=69	=69	=69
1r	1B-	1d	4a]	1dd]
.	.	.	8g	.
.	.	.	8f	.
.	.	.	2g	.
2r	1A	1e	1a	1cc#
2A	.	.	.	.
=70	=70	=70	=70	=70
2.B-	2r	1d	1f	0r
.	2d	.	.	.
4A	.	.	.	.
2G	2d	2r	2b-	.
2F#	2d	2a	2a	.
=71	=71	=71	=71	=71
0G	2B-	2.b-	1g	0r
.	2.e-	.	.	.
.	.	4a	.	.
.	.	2g	1b-	.
.	4d	.	.	.
.	[2d	2f	.	.
=72	=72	=72	=72	=72
1A	2d]	1e	0a	1ee
.	2c#	.	.	.
2D	2.d	2.d	.	2.ff
2D	.	.	.	.
.	8c	4e	.	4ee
.	8B-	.	.	.
=73	=73	=73	=73	=73
2D	1A	1f	2r	2dd
2F	.	.	2a	2cc
2.BB-	1B-	2d	2.ff	2.dd
.	.	2d	.	.
4C	.	.	4ee-	4cc
=74	=74	=74	=74	=74
4D	1F	2.f	2dd	2b-
4E-	.	.	.	.
2F	.	.	2cc	2a
.	.	4e-	.	.
2.BB-	2.f	2d	2.dd	4b-
.	.	.	.	4cc
.	.	2B-	.	4dd
4C	4e-	.	4cc	4ee-
=75	=75	=75	=75	=75
4D	2d	2r	2b-	2.ff
4E-	.	.	.	.
2F	2c	2A	2.a	.
.	.	.	.	4ee-
1G	2B-	2.B-	.	[1dd
.	.	.	4g	.
.	2G	.	[2g	.
.	.	4c	.	.
=76	=76	=76	=76	=76
1D	1A	1d	2g]	1dd]
.	.	.	2f#	.
1G	1G	1B	1g	1dd
=77	=77	=77	=77	=77
1r	1r	1r	1r	1r
[1D	[1d	[1f#	[1a	[1dd
=78	=78	=78	=78	=78
1D]	1d]	1f#]	1a]	1dd]
1G	1d	1g	1b-	1dd
=79	=79	=79	=79	=79
1F#	1d	1a	1a	1dd
[1G	[1B-	2.b-	2.g	[1dd
.	.	4a	4a	.
=80	=80	=80	=80	=80
1G]	1B-]	1g	1b-	1dd]
1C	1G	1g	1cc	1ee-
=81	=81	=81	=81	=81
0D	1d	1f#	1a	1dd
.	1d	1f#	1dd	1a
=82	=82	=82	=82	=82
0r	1G	1g	1dd	1b
.	2G	2g	2dd	2b
.	2G	2g	2dd	2b
=83	=83	=83	=83	=83
0r	0c	0g	0ee-	0cc
=84	=84	=84	=84	=84
1r	1d	1f#	2dd	[0a
.	.	.	1dd	.
[1D	2r	2r	.	.
.	[2d	[2f	2dd	.
=85	=85	=85	=85	=85
2D]	2d]	2f]	2.dd	1a]
2D	2d	2f	.	.
.	.	.	4cc	.
1D	2.d	1f	2b-	1r
.	.	.	2a	.
.	4c	.	.	.
=86	=86	=86	=86	=86
1D	2B-	2f	2.dd	0r
.	2A	1d	.	.
.	.	.	4cc	.
[1E-	[1G	.	2b-	.
.	.	4c	2a	.
.	.	4B-	.	.
=87	=87	=87	=87	=87
2E-]	2G]	2c	2g	0r
2E-	2G	2c	2g	.
1D	1A	1d	1f#	.
=88	=88	=88	=88	=88
0BB-	0B-	0d	0dd	0ff
=89	=89	=89	=89	=89
1C	1G	1e-	1cc	1ee-
1D	1d	[1f	1a	2dd
.	.	.	.	[2ff
=90	=90	=90	=90	=90
0BB-	2.d	2f]	2.ff	4ff]
.	.	.	.	4ee-
.	.	2.b-	.	4dd
.	4e-	.	4ee-	4cc
.	2f	.	4dd	2b-
.	.	4a	4cc	.
.	[2g	4g	4b-	2dd
.	.	4f	4a	.
=91	=91	=91	=91	=91
0C	4g]	4e-	2.g	2.cc
.	4f	4d	.	.
.	4e-	2.c	.	.
.	4d	.	4f	4b-
.	2.c	.	4e-	2a
.	.	4d	4d	.
.	.	2e-	[2g	2g
.	4B-	.	.	.
=92	=92	=92	=92	=92
0D	0A	0d	2g]	0dd
.	.	.	4f	.
.	.	.	4e	.
.	.	.	2f#	.
.	.	.	2f#	.
=93	=93	=93	=93	=93
[0G	[0G	[0d	[0g	[0b
=94	=94	=94	=94	=94
0G]	0G]	0d]	0g]	0b]
*-	*-	*-	*-	*-
!!!CDT: 1525/^1526/-1594/2/2
!!!OCY: Italia
!!!AGN: Mass (Parody)
!!!AST: renaissance, vocal
!!!ASW: Motet 1538 (Jacquet)
!!!PWK: Masses, Book 2
!!!RNB: Cadence finals: D
!!!YOR: Le Opere Complete, v. 4, p. 126
!!!YOO: Rome, Italy: Fratelli Scalera
!!!END: 1992//
!!!EED: John Miller
!!!YEC: Copyright 2000, John Miller
!!!YEN: United States of America
!!!YEM: Rights to all derivative electronic formats reserved.
!!!YEM: Refer to licensing agreement for further details.
!!!YEM: This file must be accompanied by the licensing agreement.
!!!YEM: A copy of the licensing agreement may be found at http://www.music-cog.ohio-state.edu/HumdrumDatabases/Palestrina/license.txt
!!!EMD: converted to Humdrum by Bret Aarden
